X: 203
T: Wuyue sanhua
L: 1/8
M: 2/4
K: G
d eg2 [I:setbarnb 1]| 
g ed2 | 
e e/ g/ d B | 
A B/ d/A2 | 
d eg2 | 
g ed2 | 
d> e d B | 
A BA2 | 
d Bd2 | 
G/ A/ B/ d/A2 | 
d B d d | 
G B A B | 
G4 | 
d> g e d | 
B B B B | 
A> Bd2 | 
e EG2 | 
A A/ B/ G E | 
D4 | 
G G E D | 
G G E D | 
A> Bd2 | 
e dG2 | 
A/ A/ B G G/ E/ | 
D4 | 
d> g e/ g/ e/ d/ | 
g Bd2 | 
A> d B/ d/ B/ A/ | 
d EG2 | 
A B A B | 
e EG2 | 
A/ A/ B G G/ E/ | 
D4 |]

@@@ Tune index: 9077
